X:1
T:Title
%%score { ( 1 3 ) | 2 }
L:1/8
M:4/4
K:Ab
V:1 treble nm="Grand Piano"
V:3 treble 
V:2 bass 
V:1
 z4 z2[Q:1/4=100] C>E | [CA]2 [CA]2 [CA]2 A>B | c2 c2 c2 c>d | e2 c2 B2 A2 |[M:3/4] B6 | %5
[M:1/4] [GB]>[Ac] |[M:4/4] [Bd]2 [Bd]2 [Bd]2 [Ge]>[Bd] | c2 c2 c2 c>_c | B2 e2 [EG]2 [=DF]2 | %9
[M:3/4] E6 |[M:1/4] [Ge]>[Bd] |[M:4/4] c>c c>c c2 A>F | [CE]6 B>c | d6 z2 | e6 z2 | %15
 c>c c>c c2 B>c | d6 z2 | [Ae] [Ac]3 [Gc]2 [GB]2 |[M:3/4] A6 |] %19
V:2
 z4 z2 C,>E, | [A,,A,]2 [A,,A,]2 [A,,A,]2[K:treble] [A,C]>[A,D] | %2
 [A,EA]2 [A,EA]2 [A,EA]2 [A,EA]>[A,DA] | [A,CA]2 [A,EA]2[K:bass] [B,E]2 [F,B,=D]2 | %4
[M:3/4] [E,G,E]6 |[M:1/4] [E,E]>[E,E] |[M:4/4] [E,E]2 [E,E]2 [E,E]2 [E,E]>[K:treble][G,E] | %7
 [A,EA]2 [A,EA]2 [A,EA]2 [A,EA]>[A,EA] | [B,EG]2 [B,EG]2[K:bass] [B,,B,]2 [B,,A,]2 | %9
[M:3/4] [E,G,]6 |[M:1/4] [E,B,]>[E,E] | %11
[M:4/4][K:treble] [A,EA]>[A,EA] [A,EA]>[A,EA] [A,EA]2 [A,DF]>[K:bass][A,D] | A,2 A,>A, A,2 z2 | %13
 z2 [E,E]>[E,E] [E,E]2 z2 | z2[K:treble] [A,C]>[A,C] [A,C]2 [A,C]>[A,C] | %15
 [A,EA]>[A,EA] [A,EA]>[A,EA] [A,E_G]2 [A,EG]>[A,EG] | [D,D]2 [D,D]>[D,D] [D,D]2 [=E,_C]>[E,C] | %17
 [E,C] [E,E]3 [E,E]2 [E,D]2 |[M:3/4] [A,C]2 [A,D]2 [A,C]2 |] %19
V:3
 x8 | x8 | x8 | x8 |[M:3/4] x6 |[M:1/4] x2 |[M:4/4] x8 | x8 | x8 |[M:3/4] x6 |[M:1/4] x2 | %11
[M:4/4] x8 | x8 | z2 G>G G2 c>d | z2 A>A A2 E>E | x8 | F2 F>F F2 [A=d]>[Ad] | x8 | %18
[M:3/4] z2 F2 E2 |] %19

